build/images/icons/envelope2.svg

<svg id="Layer_1" xmlns="http://www.w3.org/2000/svg" width="23" height="16.391"><path fill="#00BEA4" d="M22.632 14.851l-6.476-7.022 6.48-6.493a.213.213 0 0 1 .364.149v13.22c0 .195-.238.288-.368.146zm-9.892-3.603a1.976 1.976 0 0 1-1.402.582h-.016c-.535 0-1.05-.212-1.429-.591L7.975 9.323l-6.587 6.705a.213.213 0 0 0 .151.362h20a.213.213 0 0 0 .158-.357l-6.596-7.149-2.361 2.364zm-1.42-.906a.536.536 0 0 0 .377-.156L21.502.364a.213.213 0 0 0-.15-.364H1.258a.212.212 0 0 0-.15.363l9.838 9.821a.52.52 0 0 0 .374.158zM0 1.876v12.918c0 .19.231.285.365.148L6.92 8.271.363 1.726a.213.213 0 0 0-.363.15z"/></svg>

<?xml version="1.0" encoding="utf-8"?>
<!-- Generator: Adobe Illustrator 16.0.0, SVG Export Plug-In . SVG Version: 6.00 Build 0)  -->
<!DOCTYPE svg PUBLIC "-//W3C//DTD SVG 1.1//EN" "http://www.w3.org/Graphics/SVG/1.1/DTD/svg11.dtd">
<svg version="1.1" id="Layer_1" xmlns="http://www.w3.org/2000/svg" xmlns:xlink="http://www.w3.org/1999/xlink" x="0px" y="0px"
	 width="23px" height="16.391px" viewBox="0 0 23 16.391" enable-background="new 0 0 23 16.391" xml:space="preserve">
<g>
	<path fill="#00BEA4" d="M22.632,14.851l-6.476-7.022l6.48-6.493C22.771,1.201,23,1.295,23,1.485v13.22
		C23,14.9,22.762,14.993,22.632,14.851z M12.74,11.248c-0.371,0.373-0.875,0.582-1.402,0.582h-0.016
		c-0.535,0-1.05-0.212-1.429-0.591L7.975,9.323l-6.587,6.705c-0.132,0.135-0.037,0.362,0.151,0.362h20
		c0.187,0,0.283-0.222,0.158-0.357l-6.596-7.149L12.74,11.248z M11.32,10.342L11.32,10.342c0.143,0,0.276-0.057,0.377-0.156
		l9.805-9.822C21.636,0.229,21.541,0,21.352,0H1.258c-0.189,0-0.285,0.229-0.15,0.363l9.838,9.821
		C11.045,10.286,11.18,10.342,11.32,10.342z M0,1.876v12.918c0,0.19,0.231,0.285,0.365,0.148L6.92,8.271L0.363,1.726
		C0.229,1.593,0,1.688,0,1.876z"/>
</g>
</svg>
